<?xml version="1.0" encoding="UTF-8"?>
<map version="1.10" tiledversion="1.12.2" orientation="orthogonal" renderorder="right-down" width="13" height="12" tilewidth="16" tileheight="16" infinite="0" nextlayerid="8" nextobjectid="1">
 <editorsettings>
  <export format="json"/>
 </editorsettings>
 <tileset firstgid="1" name="main_town_tilemap" tilewidth="16" tileheight="16" tilecount="1472" columns="64">
  <image source="../Content/Sprites/Tilesets/main_town_tilemap.png" width="1032" height="376"/>
 </tileset>
 <tileset firstgid="1473" name="TileMap" tilewidth="16" tileheight="16" tilecount="6072" columns="88">
  <image source="../Content/Sprites/Tilesets/TileMap.png" trans="ff00ff" width="1408" height="1104"/>
 </tileset>
 <tileset firstgid="7545" name="houses" tilewidth="16" tileheight="16" tilecount="10600" columns="100">
  <image source="../Content/Sprites/Tilesets/houses.png" trans="ff00ff" width="1600" height="1696"/>
 </tileset>
 <layer id="6" name="Ground" width="13" height="12">
  <data encoding="csv">
0,0,0,0,862,0,864,865,866,867,868,0,0,
0,0,0,0,926,0,928,929,930,931,932,0,0,
0,0,0,0,990,0,992,993,994,995,996,0,0,
1050,1189,1189,1189,1189,1189,1189,1189,1189,1189,1189,1189,1189,
1114,1189,1189,1189,1054,1055,1056,1057,1058,1059,1060,1061,1062,
1178,1189,1189,1189,1118,0,0,0,0,1123,1124,1125,1126,
1242,1189,1189,1189,1182,0,0,0,0,1187,1188,1189,1190,
1178,1189,1189,1189,1246,1247,1248,1249,1250,1251,1252,1253,1254,
1242,1307,1308,1309,1310,1311,1312,1313,1314,1315,1316,1317,0,
0,1307,1308,1309,1310,1311,1307,1308,1313,1314,1315,1312,1313,
0,1371,1372,1373,1374,1375,1371,1372,1377,1378,1379,1376,1377,
0,0,0,0,0,0,0,0,0,0,0,0,0
</data>
 </layer>
 <layer id="7" name="Objects" width="13" height="12">
  <data encoding="csv">
858,859,860,861,862,863,864,865,866,867,868,869,870,
922,923,924,925,926,927,928,929,930,931,932,933,934,
986,987,988,989,0,991,0,0,0,0,0,997,998,
0,0,0,0,0,0,0,0,0,0,0,0,0,
0,0,0,0,0,0,0,0,0,0,0,0,0,
0,0,0,0,0,1119,1120,1121,1122,0,0,0,0,
0,0,0,0,0,1183,1184,1185,1186,0,0,0,0,
0,0,0,0,0,0,0,0,0,0,0,0,0,
0,0,0,0,0,0,0,0,0,0,0,0,1254,
1306,0,0,0,0,0,0,0,0,0,0,0,1318,
1370,0,0,0,0,0,0,0,0,0,0,0,1382,
1434,1435,1436,1437,1438,1439,1440,1441,1442,1443,1444,1445,1446
</data>
 </layer>
</map>
