<?xml version="1.0" encoding="UTF-8"?>
<map version="1.10" tiledversion="1.12.2" orientation="orthogonal" renderorder="right-down" width="30" height="20" tilewidth="16" tileheight="16" infinite="0" nextlayerid="8" nextobjectid="1">
 <editorsettings>
  <export target="../Content/Maps/route_1.tmj" format="json"/>
 </editorsettings>
 <tileset firstgid="1" name="main_town_tilemap" tilewidth="16" tileheight="16" tilecount="1472" columns="64">
  <image source="../Content/Sprites/Tilesets/main_town_tilemap.png" width="1032" height="376"/>
 </tileset>
 <tileset firstgid="1473" name="TileMap" tilewidth="16" tileheight="16" tilecount="6072" columns="88">
  <image source="../Content/Sprites/Tilesets/TileMap.png" trans="ff00ff" width="1408" height="1104"/>
 </tileset>
 <tileset firstgid="7545" name="houses" tilewidth="16" tileheight="16" tilecount="10600" columns="100">
  <image source="../Content/Sprites/Tilesets/houses.png" trans="ff00ff" width="1600" height="1696"/>
 </tileset>
 <layer id="4" name="Ground" width="30" height="20">
  <data encoding="csv">
1474,1474,1474,1474,1474,1474,1474,1474,1474,1474,1474,1474,1474,1474,1474,1474,1474,1474,1474,1474,1474,1474,1474,1474,1474,1474,1474,1474,1474,1474,
1474,1474,1474,1474,1474,1474,1474,1474,1474,1474,1474,1474,1474,1474,1474,1474,1474,1474,1474,1474,1474,1474,1474,1474,1474,1474,1474,1474,1474,1474,
1474,1474,1474,1474,1474,1474,1474,1474,1474,1474,1474,1474,1474,1474,1474,1474,1474,1474,1474,1474,1474,1474,1474,1474,1474,1474,1474,1474,1474,1474,
1474,1474,1474,1474,1474,1474,1474,1474,1474,1474,1474,1474,1474,1474,1474,1474,1474,1474,1474,1474,1474,1474,1474,1474,1474,1474,1474,1474,1474,1474,
1474,1474,1474,1474,1474,1474,1474,1474,1474,1474,1474,1474,1474,1474,1474,1474,1474,1474,1474,1474,1474,1474,1474,1474,1474,1474,1474,1474,1474,1474,
1474,1474,1474,1474,6495,6496,6495,6496,6495,6496,6495,6496,6495,6496,6495,6496,6495,6496,1474,1474,1474,1474,1474,1474,1474,1474,1474,1474,1474,1474,
1474,1474,1474,1474,1474,1474,1474,1474,1474,1474,1474,1474,1474,1474,1474,1474,1474,1474,1474,1474,1474,1474,1474,1474,1474,1474,1474,1474,1474,1474,
1474,1474,1474,1474,1474,1474,1474,1474,1474,1474,1474,1474,1474,1474,1474,1474,1566,1566,1474,1474,1474,1474,1474,1474,1474,1474,1474,1474,1474,1474,
1474,1474,1474,1474,1474,1474,1474,1474,1474,1474,1474,1474,1474,1474,1474,1474,1474,1474,1474,1474,1474,1474,1474,1474,1474,1474,1474,1474,1474,1474,
1474,1474,1474,1474,1474,1474,1474,1474,1474,1474,1474,1476,1474,1474,1474,1474,1474,1474,1474,1474,1474,1474,1474,1474,1474,1474,1474,1474,1474,1474,
1474,1474,1474,1474,1474,1474,1474,1474,1474,6577,6578,6578,6578,6579,1474,1474,1474,1474,1474,1474,1474,1474,1474,1474,1474,1474,1474,1474,1474,1474,
1474,1474,1474,1474,1474,1474,1474,1474,6577,6666,6666,6666,6666,6755,1474,1474,1474,1474,6495,6496,6495,6496,6495,6496,1474,1474,1474,1474,1474,1474,
1474,1474,1474,1474,1474,1474,1474,1474,6666,6666,6666,6666,6755,1474,1474,1474,1474,1474,1474,1474,1474,1474,1474,1474,1474,1474,1474,1474,1474,1474,
1474,1474,1474,1474,1474,1474,1474,1474,6753,6666,6666,6755,1474,1474,1474,1474,1474,1474,1474,1474,1474,1474,1474,1474,1474,1474,1474,1474,1474,1474,
1474,1474,1474,1474,1474,1474,1474,1474,1474,1474,1474,1474,1474,1474,1474,1474,1474,1474,1474,1474,1474,1474,1474,1474,1474,1474,1474,1474,1474,1474,
6495,6496,6495,6496,6495,6496,6495,6496,6495,6496,6495,6496,6495,6496,1474,1474,1474,1474,1474,1474,1474,1474,1474,1474,1474,1474,1474,1474,1474,1474,
1474,1474,1474,1474,1474,1474,1474,1474,1474,1474,1474,1474,1474,1474,1474,1474,1474,1474,1474,1474,1474,1474,1474,1474,1474,1474,1474,1474,1474,1474,
1474,1474,1474,1474,1474,1474,1474,1474,1474,1474,1474,1474,1474,1474,1474,1474,1474,1474,1474,1474,1474,1474,1474,1474,1474,1474,1474,1474,1474,1474,
1474,1474,1474,1474,1474,1474,1474,1474,1474,1474,1474,1474,1474,1474,1474,1474,1474,1474,1474,1474,1474,1474,1474,1474,1474,1474,1474,1474,1474,1474,
1474,1474,1474,1474,1474,1474,1474,1474,1474,1474,1474,1474,1474,1474,1474,1474,1474,1474,1474,1474,1474,1474,1474,1474,1474,1474,1474,1474,1474,1474
</data>
 </layer>
 <layer id="5" name="Objects" width="30" height="20">
  <data encoding="csv">
6583,6584,6583,6584,6583,6584,6583,6584,6583,6584,6583,6584,0,0,0,0,6583,6584,6583,6584,6583,6584,6583,6584,6583,6584,6583,6584,6583,6584,
6671,6672,6671,6672,6759,6760,6759,6760,6759,6760,6759,6760,0,0,0,0,6759,6760,6759,6760,6759,6760,6759,6760,6671,6672,6671,6672,6671,6672,
6583,6584,6583,6584,0,0,0,0,0,0,0,0,0,0,0,0,0,0,0,0,0,0,0,0,6583,6584,6583,6584,6583,6584,
6671,6672,6671,6672,0,0,0,0,0,0,0,0,0,0,0,0,0,0,0,0,0,0,0,0,6671,6672,6671,6672,6671,6672,
6583,6584,6583,6584,0,0,0,0,0,0,0,0,0,0,0,0,0,0,0,0,0,0,0,0,6583,6584,6583,6584,6583,6584,
6671,6672,6671,6672,0,0,0,0,0,0,0,0,0,0,0,0,0,0,0,0,0,0,0,0,6671,6672,6671,6672,6671,6672,
6583,6584,6583,6584,6583,6584,6583,6584,6583,6584,6583,6584,6583,6584,6583,6584,6583,6584,0,0,0,0,0,0,6583,6584,6583,6584,6583,6584,
6669,6670,6669,6670,6669,6670,6759,6760,6759,6760,6759,6760,6759,6760,6759,6760,6759,6760,0,0,0,0,0,0,6671,6672,6671,6672,6671,6672,
6583,6584,6583,6584,6583,6584,0,0,0,0,0,0,0,0,0,0,0,0,0,0,0,0,0,0,6583,6584,6583,6584,6583,6584,
6759,6760,6759,6760,6759,6760,0,0,0,0,0,0,0,0,0,0,0,0,0,0,0,0,0,0,6671,6672,6671,6672,6671,6672,
0,0,0,0,0,0,0,0,0,0,0,0,0,0,0,0,6583,6584,0,0,0,0,0,0,6583,6584,6583,6584,6583,6584,
0,0,0,0,0,0,0,0,0,0,0,0,0,0,0,0,6669,6670,0,0,0,0,0,0,6671,6672,6671,6672,6671,6672,
0,0,0,0,0,0,0,0,0,0,0,0,0,0,0,0,6583,6584,6583,6584,6583,6584,6583,6584,6583,6584,6583,6584,6583,6584,
0,0,0,0,0,0,0,0,0,0,0,0,0,0,0,0,6669,6670,6669,6670,6669,6670,6669,6670,6669,6670,6669,6670,6669,6670,
0,0,0,0,0,0,0,0,0,0,0,0,0,0,0,0,6583,6584,6583,6584,6583,6584,6583,6584,6583,6584,6583,6584,6583,6584,
0,0,0,0,0,0,0,0,0,0,0,0,0,0,0,0,6671,6672,6671,6672,6671,6672,6671,6672,6671,6672,6671,6672,6671,6672,
6583,6584,6583,6584,6583,6584,6583,6584,6583,6584,6583,6584,6583,6584,0,0,6583,6584,6583,6584,6583,6584,6583,6584,6583,6584,6583,6584,6583,6584,
6671,6672,6671,6672,6671,6672,6671,6672,6671,6672,6671,6672,6671,6672,0,0,6669,6670,6669,6670,6669,6670,6669,6670,6669,6670,6669,6670,6669,6670,
6583,6584,6583,6584,6583,6584,6583,6584,6583,6584,6583,6584,6583,6584,0,0,6583,6584,6583,6584,6583,6584,6583,6584,6583,6584,6583,6584,6583,6584,
6759,6760,6759,6760,6759,6760,6759,6760,6759,6760,6759,6760,6759,6760,0,0,6759,6760,6759,6760,6759,6760,6759,6760,6759,6760,6759,6760,6669,6670
</data>
 </layer>
 <layer id="6" name="Tall Grass" width="30" height="20">
  <data encoding="csv">
0,0,0,0,0,0,0,0,0,0,0,0,0,0,0,0,0,0,0,0,0,0,0,0,0,0,0,0,0,0,
0,0,0,0,0,0,0,0,0,0,0,0,0,0,0,0,0,0,0,0,0,0,0,0,0,0,0,0,0,0,
0,0,0,0,0,0,0,0,0,0,0,0,0,0,0,0,0,0,0,0,0,0,0,0,0,0,0,0,0,0,
0,0,0,0,0,0,0,0,0,0,0,0,0,0,0,0,0,0,0,0,0,0,0,0,0,0,0,0,0,0,
0,0,0,0,0,0,0,0,0,0,0,0,0,0,0,0,0,0,0,0,0,0,0,0,0,0,0,0,0,0,
0,0,0,0,0,0,0,0,0,0,0,0,0,0,0,0,0,0,0,0,0,0,0,0,0,0,0,0,0,0,
0,0,0,0,0,0,0,0,0,0,0,0,0,0,0,0,0,0,0,0,0,0,0,0,0,0,0,0,0,0,
0,0,0,0,0,0,0,0,0,0,0,0,0,0,0,0,0,0,1566,0,0,0,0,0,0,0,0,0,0,0,
0,0,0,0,0,0,0,0,0,0,0,0,0,0,0,0,1566,1566,1566,1566,0,0,0,0,0,0,0,0,0,0,
0,0,0,0,0,0,0,0,0,0,0,0,0,0,0,0,6407,6408,1566,1566,1566,1566,0,0,0,0,0,0,0,0,
0,0,0,1566,1566,1566,0,0,0,0,0,0,0,0,0,0,0,0,0,1566,1566,1566,1566,0,0,0,0,0,0,0,
0,1566,1566,1566,1566,1566,1566,0,0,0,0,0,0,0,0,0,0,0,0,0,0,0,0,0,0,0,0,0,0,0,
1566,1566,1566,1566,1566,1566,0,0,0,0,0,0,0,0,0,0,0,0,0,0,0,0,0,0,0,0,0,0,0,0,
1566,1566,1566,1566,1566,1566,1566,0,0,0,0,0,0,0,0,0,0,0,0,0,0,0,0,0,0,0,0,0,0,0,
1566,1566,1566,1566,1566,1566,1566,1566,0,0,0,0,0,0,0,0,0,0,0,0,0,0,0,0,0,0,0,0,0,0,
6407,6408,6407,6408,6407,6408,0,0,0,0,0,0,0,0,0,0,0,0,0,0,0,0,0,0,0,0,0,0,0,0,
0,0,0,0,0,0,0,0,0,0,0,0,0,0,0,0,0,0,0,0,0,0,0,0,0,0,0,0,0,0,
0,0,0,0,0,0,0,0,0,0,0,0,0,0,0,0,0,0,0,0,0,0,0,0,0,0,0,0,0,0,
0,0,0,0,0,0,0,0,0,0,0,0,0,0,0,0,0,0,0,0,0,0,0,0,0,0,0,0,0,0,
0,0,0,0,0,0,0,0,0,0,0,0,0,0,0,0,0,0,0,0,0,0,0,0,0,0,0,0,0,0
</data>
 </layer>
</map>
