<?xml version="1.0" encoding="UTF-8"?>
<map version="1.10" tiledversion="1.12.2" orientation="orthogonal" renderorder="right-down" width="20" height="20" tilewidth="16" tileheight="16" infinite="0" nextlayerid="6" nextobjectid="1">
 <tileset firstgid="1" name="main_town_tilemap" tilewidth="16" tileheight="16" tilecount="1472" columns="64">
  <image source="../Content/Sprites/Tilesets/main_town_tilemap.png" width="1032" height="376"/>
 </tileset>
 <tileset firstgid="1473" name="TileMap" tilewidth="16" tileheight="16" tilecount="6072" columns="88">
  <image source="../Content/Sprites/Tilesets/TileMap.png" trans="ff00ff" width="1408" height="1104"/>
 </tileset>
 <tileset firstgid="7545" name="houses" tilewidth="16" tileheight="16" tilecount="10600" columns="100">
  <image source="../Content/Sprites/Tilesets/houses.png" trans="ff00ff" width="1600" height="1696"/>
 </tileset>
 <layer id="4" name="Ground" width="20" height="20">
  <data encoding="csv">
1474,1474,1474,1474,1474,1474,1474,1474,1474,1474,1474,1474,1474,1474,1474,1474,1474,1474,6669,6670,
1474,1474,1474,1474,1474,1474,1474,1474,1474,1474,1474,1474,1474,1474,1474,1474,1474,1474,1474,1474,
1474,1474,1474,1474,1474,1474,1474,1474,1474,1474,1474,1474,1474,1474,1474,1474,1474,1474,1474,1474,
1474,1474,1474,1474,1474,1474,1474,1474,1474,1474,1474,1474,1474,1474,1474,1474,1474,1474,1474,1474,
1474,1474,1474,1474,1474,1474,1474,1474,1474,1474,1474,1474,1474,1474,1474,1474,1474,1474,1474,1474,
1474,1474,1474,1474,1474,1474,1474,1474,1474,1474,1474,1474,1474,1474,1474,1474,1474,1474,1474,1474,
1474,1474,1474,1474,1474,1474,1474,1474,1474,1474,1474,1474,1474,1474,1474,1474,1474,1474,1474,1474,
1474,1474,1474,1474,1474,1474,1474,1474,1474,1474,1474,1474,1474,1474,1474,1474,1474,1474,1474,1474,
1474,1474,1474,1474,1474,1474,1474,1474,1474,1474,1474,1474,1474,1474,1474,1474,1474,1474,1474,1474,
1474,1474,1474,1474,1474,1474,1474,1474,1474,1474,1474,1474,1474,1474,1474,1474,1474,1474,1474,1474,
1477,1474,1474,1490,1474,1474,1474,1474,1474,1474,1474,1474,1474,1474,1474,1474,1474,1474,1490,1474,
1474,1477,1474,1474,1474,1474,1474,1474,1474,1477,1474,1474,1474,1474,1474,1474,1474,1474,1474,1474,
1477,1474,1474,1474,1474,1474,1474,1474,1474,1474,1474,1474,1474,1474,1474,1474,1477,1474,1474,1474,
1474,1474,1474,1474,1477,1474,1474,1474,1474,1474,1474,1474,1474,1474,1474,1474,1474,1474,1474,1474,
1474,1474,1474,1474,1474,1474,1474,1474,1474,1474,1474,1474,1474,1474,1474,1474,1474,1474,1474,1474,
1474,1474,1474,1474,1474,1474,1474,1474,1474,1477,1474,1474,1474,1474,1474,1474,1474,1474,1474,1474,
1474,1474,1474,1474,1474,1474,1474,1474,1474,1474,1474,1474,1474,1474,1474,1474,1474,1474,1474,1474,
1474,1474,1474,1474,1474,1477,1474,1474,1474,1474,1474,1474,1474,1474,1474,1474,1490,1474,1474,1474,
1474,1474,1474,1474,1474,1474,1474,1474,1474,1474,1474,1474,1474,1474,1474,1474,1474,1741,1741,1741,
1474,1474,1474,1474,1474,1474,1474,1474,1474,1474,1482,1482,1482,1474,1741,1741,1482,1482,1482,1482
</data>
 </layer>
 <layer id="5" name="Objects" width="20" height="20">
  <data encoding="csv">
6669,6670,6669,6670,6669,6670,6669,6670,6669,6670,0,0,6669,6670,6669,6670,6669,6670,6669,6670,
6583,6584,6583,6584,6583,6584,6583,6584,6583,6584,0,0,6583,6584,6583,6584,6583,6584,6583,6584,
6671,6672,6759,6760,6759,6760,6759,6760,6759,6760,0,0,6759,6760,6759,6760,6759,6760,6669,6670,
6583,6584,0,0,0,0,0,0,0,0,0,0,0,0,0,0,0,0,6581,6582,
6759,6760,0,0,0,0,0,0,0,0,0,0,0,0,0,0,0,0,6757,6758,
0,0,0,0,0,0,0,0,0,0,0,0,0,0,0,0,0,0,0,0,
0,0,7790,7791,7792,7809,7809,7793,0,0,0,0,0,8295,8296,8296,8297,8296,8297,8299,
0,0,7890,7891,7892,7909,7909,7893,0,0,0,0,0,8395,8396,8396,8397,8396,8397,8399,
0,0,7990,7991,7992,8009,7992,7993,0,0,0,0,0,8495,8496,8009,8009,8496,8497,8499,
0,0,8090,8091,8092,8109,8092,8093,1476,0,0,0,1476,8595,8596,8109,8109,8596,8597,8599,
0,0,0,0,0,0,0,0,0,0,0,0,0,0,0,0,0,0,0,0,
0,0,0,0,0,0,0,0,0,0,0,0,0,0,0,0,0,0,0,0,
0,0,0,0,0,0,0,0,0,0,0,0,0,0,0,0,0,0,0,0,
0,0,0,0,0,0,0,0,0,0,0,0,0,9451,9458,9458,9452,9458,9458,9453,
0,0,0,0,0,0,0,0,0,0,0,0,0,9551,9558,9558,9552,9558,9558,9553,
0,0,0,0,0,0,0,0,0,0,0,0,0,9651,9658,9658,9652,9658,9658,9653,
0,0,0,0,0,0,0,0,0,0,0,0,1476,9751,9758,9758,9752,9758,9758,9753,
6495,6496,0,0,0,0,0,0,0,0,0,0,0,0,0,0,0,0,0,0,
6583,6584,6495,6496,6495,6496,6495,6496,6495,6496,6495,6496,6495,6496,6495,6496,6495,6496,6495,6496,
6671,6672,6583,6584,6583,6584,6583,6584,6583,6584,6583,6584,6583,6584,6583,6584,6583,6584,6583,6584
</data>
 </layer>
</map>
