<?xml version="1.0" encoding="UTF-8"?>
<map version="1.10" tiledversion="1.12.2" orientation="orthogonal" renderorder="right-down" width="30" height="20" tilewidth="20" tileheight="20" infinite="0" nextlayerid="7" nextobjectid="7">
 <editorsettings>
  <export target="entrance.tmj" format="json"/>
 </editorsettings>
 <tileset firstgid="1104" name="tiltan_tale_ruins" tilewidth="20" tileheight="20" spacing="1" tilecount="1376" columns="32">
  <grid orientation="orthogonal" width="21" height="21"/>
  <image source="../Sprites/Tilesets/tiltan_tale_ruins.png" trans="8a5a9d" width="682" height="910"/>
 </tileset>
 <layer id="1" name="Ground" width="30" height="20">
  <data encoding="csv">
0,0,0,0,0,0,0,0,0,0,0,0,0,0,0,0,0,0,0,0,0,0,0,0,0,0,0,0,0,0,
0,0,0,0,0,0,0,0,0,0,0,0,0,0,0,0,0,0,0,0,0,0,0,0,0,0,0,0,0,0,
0,0,0,0,0,0,0,0,0,0,0,0,0,0,0,0,0,0,0,0,0,0,0,0,0,0,0,0,0,0,
0,0,0,0,0,0,0,0,0,0,0,0,0,0,0,0,0,0,0,0,0,0,0,0,0,0,0,0,0,0,
0,0,0,0,0,0,0,0,0,0,0,0,0,0,0,0,0,0,0,0,0,0,0,0,0,0,0,0,0,0,
0,0,0,0,0,0,0,0,0,0,0,0,0,0,0,0,0,0,0,0,0,0,0,0,0,0,0,0,0,0,
0,0,0,0,0,0,0,0,0,0,0,0,0,0,0,0,0,0,0,0,0,0,0,0,0,0,0,0,0,0,
0,0,0,0,0,0,0,0,0,0,0,0,0,0,0,0,0,0,0,0,0,0,0,0,0,0,0,0,0,0,
0,0,0,0,0,0,0,0,0,0,0,0,0,0,0,0,0,0,0,0,0,0,0,0,0,0,0,0,0,0,
0,0,0,0,0,0,0,0,0,0,0,0,0,0,0,0,0,0,0,0,0,0,0,0,0,0,0,0,0,0,
0,0,0,0,0,0,0,0,0,0,0,0,0,0,0,0,0,0,0,0,0,0,0,0,0,0,0,0,0,0,
1936,1937,1938,1939,1940,1941,1942,1943,1944,1945,1946,1947,1948,1949,0,0,0,0,0,0,0,0,0,0,0,0,0,0,0,0,
1968,1969,1970,1971,1972,1973,1974,1975,1976,1977,1978,1979,1980,1981,0,0,0,0,0,0,0,0,0,0,0,0,0,0,0,0,
2000,2001,2002,2003,2004,2005,2006,2007,2008,2009,2010,2011,2012,2013,0,0,0,0,0,0,0,0,0,0,0,0,0,2029,0,0,
2032,2033,2034,2035,2036,2037,2038,2039,2040,2041,2042,2043,2044,2045,0,0,0,0,0,0,0,0,0,0,0,0,0,2061,0,0,
2064,2065,2066,2067,2068,2069,2070,2071,2072,2073,2074,2075,2076,2078,2079,2080,2081,2082,2083,2084,2085,2086,2087,2088,0,2091,2092,2093,2094,2095,
2096,2097,2098,2099,2100,2101,2102,2103,2104,2105,2106,2107,2108,2110,2111,2112,2113,2114,2115,2116,2117,2118,2119,2120,2121,2123,2124,2125,2126,2127,
2128,2129,2130,2131,2132,2133,2134,2135,2136,2137,2138,2139,2140,2142,2143,2144,2145,2146,2147,2148,2149,2150,2151,2152,2153,2155,2156,2157,2158,2159,
2160,2161,2162,2163,2164,2165,2166,2167,2168,2169,2170,2171,2172,2173,0,0,0,0,0,0,0,0,0,0,0,0,0,0,0,0,
2192,2193,2194,2195,2196,2197,2198,2199,2200,2201,2202,2203,2204,2205,0,0,0,0,0,0,0,0,0,0,0,0,0,0,0,0
</data>
 </layer>
 <layer id="4" name="Objects" width="30" height="20">
  <data encoding="csv">
1956,1957,1958,1959,1960,1961,1962,1962,1994,1959,1960,1961,1962,1962,1962,1962,1962,1994,1957,1958,1959,1960,1961,1962,1962,1962,1959,1960,1961,1962,
1956,1956,1957,1958,1959,1960,1961,1962,2026,1962,1962,1962,1962,1994,1994,1994,1994,2026,1960,1961,1962,1962,1962,1962,1994,1994,1961,1962,1962,1962,
1988,1988,1989,1990,1991,1992,1993,1994,2058,1994,1994,1994,1994,2026,2026,2026,2026,2058,1962,1962,1962,1994,1994,1994,2026,2026,1962,1962,1994,1994,
2020,2020,2021,2022,2023,2024,2025,2026,2058,2026,2026,2026,2026,2058,2058,2058,2058,1994,1994,1994,1994,2026,2026,2026,2058,2058,1994,1994,2026,2026,
2052,2052,2053,2054,2055,2056,2057,2058,2057,2058,2058,2058,2058,1994,1994,1994,1994,2026,2026,2026,2026,2058,2058,2058,1994,1994,2026,2026,2058,2058,
2053,2054,2055,2056,2057,2058,1962,2054,2055,2056,2057,2058,2026,2026,2026,2026,2026,2058,2058,2058,2058,1962,1994,1994,2026,2026,2058,2058,2057,2058,
2053,2054,2055,2056,2057,2058,1957,1958,1959,1960,1961,1962,2058,2058,2058,2058,2058,2055,2056,2057,2058,1994,2026,2026,2058,2058,2055,2056,2057,2058,
2053,2054,2055,2056,2057,2058,1962,1962,1962,1962,1962,1962,1962,1962,1962,2054,2055,2056,2057,2058,1994,2026,2058,2058,2053,2054,2055,2056,2057,2058,
2053,2054,2055,2056,2057,2058,1994,1994,1994,1994,1994,1994,1994,1994,1994,2055,2056,2057,2058,2026,2026,2058,1988,2052,2053,2054,2055,2056,2057,2058,
2053,2054,2055,2056,2057,2058,2026,2026,2026,2026,2026,2026,2026,2026,2026,2056,2057,2058,2058,2058,2058,2020,2020,2052,2053,2054,2055,2056,2057,2058,
2053,2054,2055,2056,2057,2058,2058,2058,2058,2058,2058,2058,2058,2058,2058,1988,2020,2020,2020,2052,2052,2052,2052,2052,2053,2054,2055,2056,2057,2058,
0,0,0,0,0,0,0,0,0,0,0,0,0,0,2020,2020,2052,2052,2052,2052,2053,2054,2055,2052,2053,2054,2055,2056,2057,2058,
0,0,0,0,0,0,0,0,0,0,0,0,0,0,2052,2052,2052,2053,2054,2055,2056,2057,2058,1993,1994,1995,1996,1997,1998,1999,
0,0,0,0,0,0,0,0,0,0,0,0,0,0,2052,2053,2054,2055,2056,2057,2058,2058,2026,2025,2026,2027,2028,0,2030,2031,
0,0,0,0,0,0,0,0,0,0,0,0,0,0,2052,2053,2054,2055,2056,2057,2058,2058,2058,2057,2058,2059,2060,0,2062,2063,
0,0,0,0,0,0,0,0,0,0,0,0,0,0,0,0,0,0,0,0,0,0,0,2089,2090,2091,2092,0,2094,2095,
0,0,0,0,0,0,0,0,0,0,0,0,0,0,0,0,0,0,0,0,0,0,0,0,0,0,0,0,0,0,
0,0,0,0,0,0,0,0,0,0,0,0,0,0,0,0,0,0,0,0,0,0,0,0,0,0,0,0,0,0,
0,0,0,0,0,0,0,0,0,0,0,0,0,0,2176,2177,2178,2179,2180,2181,2182,2183,2184,2185,2186,2187,2188,2189,2190,2191,
0,0,0,0,0,0,0,0,0,0,0,0,0,0,2208,2209,2210,2211,2212,2213,2214,2215,2216,2217,2218,2219,2220,2221,2222,2223
</data>
 </layer>
 <objectgroup id="6" name="Interactables">
  <object id="6" x="109.5" y="268.5" width="69.75" height="51"/>
 </objectgroup>
</map>
