{ "compressionlevel":-1,
 "height":16,
 "infinite":false,
 "layers":[
        {
         "data":[18187, 18187, 18187, 18187, 18187, 0, 0, 0, 0, 0, 0, 0, 0, 0, 0, 0,
            0, 0, 0, 0, 0, 0, 18168, 18168, 18168, 18168, 0, 0, 0, 0, 0, 0,
            18147, 18148, 18149, 18149, 18149, 18149, 18149, 18149, 18149, 18149, 18149, 18149, 18149, 18149, 18149, 18150,
            18163, 18164, 18180, 18181, 18181, 18181, 18181, 18181, 18181, 18181, 18181, 18181, 18181, 18181, 18165, 18166,
            18163, 18180, 18181, 18181, 18197, 18197, 18197, 18197, 18197, 18197, 18197, 18180, 18180, 18180, 18181, 18166,
            18163, 18180, 18180, 18180, 18180, 18180, 18180, 18180, 18180, 18180, 18180, 18196, 18196, 18180, 18181, 18166,
            18163, 18196, 18196, 18196, 18196, 18196, 18180, 18181, 18181, 18196, 18196, 18180, 18181, 18181, 18181, 18166,
            18163, 18180, 18181, 18181, 18181, 18181, 18181, 18181, 18197, 18180, 18181, 18181, 18181, 18197, 18197, 18166,
            18163, 18180, 18180, 18181, 18197, 18197, 18181, 18197, 18197, 18181, 18181, 18197, 18180, 18180, 18181, 18166,
            18163, 18196, 18180, 18180, 18181, 18181, 18181, 18196, 18197, 18181, 18197, 18197, 18196, 18180, 18181, 18166,
            18163, 18180, 18181, 18181, 18181, 18197, 18197, 18196, 18197, 18197, 18197, 18180, 18181, 18180, 18181, 18166,
            18163, 18180, 18180, 18180, 18181, 18181, 18197, 18196, 18197, 18196, 18197, 18180, 18181, 18180, 18181, 18166,
            18163, 18180, 18181, 18180, 18181, 18197, 18181, 18181, 18196, 18196, 18197, 18180, 18181, 18181, 18181, 18166,
            18163, 18196, 18197, 18181, 18181, 18197, 18197, 18181, 18181, 18197, 18181, 18180, 18181, 18197, 18181, 18166,
            18163, 18196, 18197, 18181, 18197, 18196, 18197, 18197, 18197, 18181, 18197, 18181, 18181, 18197, 18181, 18166,
            18179, 18196, 18197, 18197, 18196, 18197, 18196, 18196, 18197, 18197, 18197, 18197, 18197, 18197, 18197, 18166],
         "height":16,
         "id":4,
         "name":"Ground",
         "opacity":1,
         "type":"tilelayer",
         "visible":true,
         "width":16,
         "x":0,
         "y":0
        }, 
        {
         "data":[18177, 18289, 18290, 18291, 18292, 18178, 18178, 18178, 18178, 18178, 18178, 18178, 18178, 18178, 18178, 18178,
            18193, 18305, 18306, 18307, 18308, 18194, 18317, 18318, 18319, 18320, 18194, 18221, 18222, 18194, 18194, 18194,
            0, 18321, 18322, 18323, 18324, 0, 18333, 18334, 18335, 18336, 0, 18237, 18238, 0, 0, 0,
            0, 18337, 18338, 18339, 18340, 0, 18349, 18350, 18351, 18352, 0, 18253, 18254, 18239, 18240, 0,
            0, 18353, 18354, 18355, 18356, 0, 18365, 18366, 18367, 18368, 0, 18269, 18270, 18255, 18256, 0,
            0, 0, 0, 0, 0, 0, 0, 0, 0, 0, 0, 18285, 18286, 18271, 18272, 0,
            0, 0, 0, 0, 0, 0, 0, 0, 0, 0, 0, 0, 0, 0, 0, 0,
            0, 0, 0, 0, 0, 0, 0, 0, 0, 0, 0, 0, 0, 0, 0, 0,
            0, 0, 0, 0, 0, 0, 0, 0, 0, 0, 0, 0, 0, 0, 0, 0,
            0, 0, 0, 0, 0, 0, 0, 0, 0, 0, 0, 0, 0, 0, 18247, 18248,
            0, 0, 0, 0, 0, 0, 0, 0, 0, 0, 0, 0, 0, 0, 18263, 18264,
            0, 0, 0, 0, 0, 0, 0, 0, 0, 0, 0, 0, 0, 0, 0, 0,
            18309, 18310, 0, 0, 0, 0, 0, 0, 0, 0, 0, 0, 0, 0, 0, 0,
            18325, 18326, 0, 0, 0, 0, 0, 0, 0, 0, 0, 0, 0, 0, 0, 0,
            18341, 18342, 0, 0, 0, 0, 0, 0, 0, 0, 0, 0, 0, 0, 0, 0,
            18357, 18358, 0, 0, 0, 0, 0, 0, 0, 0, 0, 0, 0, 0, 0, 0],
         "height":16,
         "id":5,
         "name":"Objects",
         "opacity":1,
         "type":"tilelayer",
         "visible":true,
         "width":16,
         "x":0,
         "y":0
        }],
 "nextlayerid":8,
 "nextobjectid":1,
 "orientation":"orthogonal",
 "renderorder":"right-down",
 "tiledversion":"1.12.2",
 "tileheight":16,
 "tilesets":[
        {
         "columns":64,
         "firstgid":1,
         "image":"..\/Sprites\/Tilesets\/main_town_tilemap.png",
         "imageheight":376,
         "imagewidth":1032,
         "margin":0,
         "name":"main_town_tilemap",
         "spacing":0,
         "tilecount":1472,
         "tileheight":16,
         "tilewidth":16
        }, 
        {
         "columns":88,
         "firstgid":1473,
         "image":"..\/Sprites\/Tilesets\/TileMap.png",
         "imageheight":1104,
         "imagewidth":1408,
         "margin":0,
         "name":"TileMap",
         "spacing":0,
         "tilecount":6072,
         "tileheight":16,
         "tilewidth":16,
         "transparentcolor":"#ff00ff"
        }, 
        {
         "columns":100,
         "firstgid":7545,
         "image":"..\/Sprites\/Tilesets\/houses.png",
         "imageheight":1696,
         "imagewidth":1600,
         "margin":0,
         "name":"houses",
         "spacing":0,
         "tilecount":10600,
         "tileheight":16,
         "tilewidth":16,
         "transparentcolor":"#ff00ff"
        }, 
        {
         "columns":16,
         "firstgid":18145,
         "image":"..\/Sprites\/Tilesets\/dd51y4b-d8974f58-deb1-47fc-ae44-234a64467744.png",
         "imageheight":256,
         "imagewidth":256,
         "margin":0,
         "name":"dd51y4b-d8974f58-deb1-47fc-ae44-234a64467744",
         "spacing":0,
         "tilecount":256,
         "tileheight":16,
         "tilewidth":16,
         "transparentcolor":"#ff00ff"
        }],
 "tilewidth":16,
 "type":"map",
 "version":"1.10",
 "width":16
}