<?xml version="1.0" encoding="UTF-8"?>
<map version="1.10" tiledversion="1.12.2" orientation="orthogonal" renderorder="right-down" width="30" height="20" tilewidth="20" tileheight="20" infinite="0" nextlayerid="7" nextobjectid="7">
 <editorsettings>
  <export target="entrance.tmj" format="json"/>
 </editorsettings>
 <tileset firstgid="1" name="tiltan_tale_ruins" tilewidth="20" tileheight="20" spacing="1" tilecount="1376" columns="32">
  <grid orientation="orthogonal" width="21" height="21"/>
  <image source="../Sprites/Tilesets/tiltan_tale_ruins.png" trans="8a5a9d" width="682" height="910"/>
 </tileset>
 <layer id="1" name="Ground" width="30" height="20">
  <data encoding="csv">
0,0,0,0,0,0,0,0,0,0,0,0,0,0,0,0,655,655,655,655,655,655,655,655,655,655,655,655,655,655,
0,0,0,0,0,0,0,0,0,0,0,0,0,0,0,0,655,655,655,655,655,655,655,655,655,655,655,655,655,655,
0,0,0,0,0,0,0,0,0,0,0,0,0,0,0,0,655,655,655,655,655,655,655,655,655,655,655,655,655,655,
0,0,0,0,0,0,0,0,0,0,0,0,0,0,0,0,655,655,655,655,655,655,655,655,655,655,655,655,655,655,
0,0,0,0,0,0,0,0,0,0,0,0,0,0,0,0,655,655,655,655,655,655,655,655,655,655,655,655,655,655,
137,137,137,137,78,136,136,136,137,137,137,137,97,66,65,11,655,655,655,655,655,655,655,655,655,655,655,655,655,655,
137,137,137,78,136,136,136,111,137,137,137,137,137,97,65,11,655,655,655,655,655,655,655,655,655,655,655,655,655,655,
137,137,78,136,136,136,111,137,137,137,137,137,137,137,97,11,655,655,655,655,655,655,655,655,655,655,655,655,655,655,
137,137,136,136,136,136,137,137,137,137,137,137,137,137,137,11,655,655,655,655,655,655,655,655,655,655,655,655,655,655,
137,137,136,136,136,136,137,137,137,137,137,137,137,137,137,11,655,655,655,655,655,655,655,655,655,655,655,655,655,655,
137,137,136,136,136,136,137,137,137,137,137,137,137,137,137,11,655,655,655,655,655,655,655,655,655,655,655,655,655,655,
137,137,136,136,136,136,137,137,137,137,137,137,137,137,137,11,655,655,655,655,655,655,655,655,655,655,655,655,655,655,
137,137,136,136,136,136,79,137,137,137,137,137,137,137,137,11,655,655,655,655,655,655,655,655,655,655,655,655,655,655,
137,137,136,136,136,136,136,79,137,137,137,137,137,137,137,11,655,655,655,655,655,655,655,655,655,655,655,655,655,655,
137,137,110,136,136,136,136,136,137,137,137,137,137,137,137,11,655,655,655,655,655,655,655,655,655,655,655,655,655,655,
137,137,137,110,136,136,136,136,137,137,137,137,137,137,137,11,655,655,655,655,655,655,655,655,655,655,655,655,655,655,
137,137,137,137,136,136,136,136,137,137,137,137,137,137,137,11,655,655,655,655,655,655,655,655,655,655,655,655,655,655,
137,137,137,137,136,136,136,136,137,137,137,137,137,137,137,11,655,655,655,655,655,655,655,655,655,655,655,655,655,655,
137,137,137,137,136,136,136,136,137,137,137,137,137,137,137,11,655,655,655,655,655,655,655,655,655,655,655,655,655,655,
137,137,137,137,136,136,136,136,137,137,137,137,137,137,137,11,655,655,655,655,655,655,655,655,655,655,655,655,655,655
</data>
 </layer>
 <layer id="4" name="Objects" width="30" height="20">
  <data encoding="csv">
10,10,10,10,10,10,10,10,10,10,10,10,10,18,655,655,0,0,0,0,0,0,0,0,0,0,0,0,0,0,
65,66,66,66,66,66,66,66,66,66,66,66,65,43,18,655,0,0,0,0,0,0,0,0,0,0,0,0,0,0,
65,66,66,66,66,66,129,130,66,66,66,66,65,66,43,18,0,0,0,0,0,0,0,0,0,0,0,0,0,0,
65,66,66,66,66,66,161,162,66,66,66,66,65,66,65,11,0,0,0,0,0,0,0,0,0,0,0,0,0,0,
97,98,98,98,98,98,193,194,98,98,98,98,65,66,65,11,0,0,0,0,0,0,0,0,0,0,0,0,0,0,
0,0,0,0,0,0,0,0,0,0,0,0,0,0,0,0,0,0,0,0,0,0,0,0,0,0,0,0,0,0,
0,0,0,0,0,0,0,0,0,0,0,0,0,0,0,0,0,0,0,0,0,0,0,0,0,0,0,0,0,0,
0,0,0,0,0,0,0,0,0,0,0,0,0,0,0,0,0,0,0,0,0,0,0,0,0,0,0,0,0,0,
0,0,0,0,0,0,0,0,0,0,0,0,0,0,0,0,0,0,0,0,0,0,0,0,0,0,0,0,0,0,
0,0,0,0,0,0,0,0,0,0,0,0,0,0,0,0,0,0,0,0,0,0,0,0,0,0,0,0,0,0,
0,0,0,0,0,0,0,0,0,0,0,0,0,0,0,0,0,0,0,0,0,0,0,0,0,0,0,0,0,0,
0,0,0,0,0,0,0,0,0,0,0,0,0,0,0,0,0,0,0,0,0,0,0,0,0,0,0,0,0,0,
0,0,0,0,0,0,0,0,0,0,0,0,0,0,0,0,0,0,0,0,0,0,0,0,0,0,0,0,0,0,
0,0,0,0,0,0,0,0,0,0,0,0,0,0,0,0,0,0,0,0,0,0,0,0,0,0,0,0,0,0,
0,0,0,0,0,0,0,0,0,0,0,0,0,0,0,0,0,0,0,0,0,0,0,0,0,0,0,0,0,0,
0,0,0,0,0,0,0,0,0,0,0,0,0,0,0,0,0,0,0,0,0,0,0,0,0,0,0,0,0,0,
0,0,0,0,0,0,0,0,0,0,0,0,0,0,0,0,0,0,0,0,0,0,0,0,0,0,0,0,0,0,
0,0,0,0,0,0,0,0,0,0,0,0,0,0,0,0,0,0,0,0,0,0,0,0,0,0,0,0,0,0,
0,0,0,0,0,0,0,0,0,0,0,0,0,0,0,0,0,0,0,0,0,0,0,0,0,0,0,0,0,0,
0,0,0,0,0,0,0,0,0,0,0,0,0,0,0,0,0,0,0,0,0,0,0,0,0,0,0,0,0,0
</data>
 </layer>
 <objectgroup id="6" name="Interactables"/>
</map>
