<?xml version="1.0" encoding="UTF-8"?>
<map version="1.10" tiledversion="1.12.2" orientation="orthogonal" renderorder="right-down" width="60" height="32" tilewidth="20" tileheight="20" infinite="0" nextlayerid="7" nextobjectid="11">
 <tileset firstgid="1" name="tiltan_tale_ruins" tilewidth="20" tileheight="20" spacing="1" tilecount="1376" columns="32">
  <grid orientation="orthogonal" width="21" height="21"/>
  <image source="../Sprites/Tilesets/tiltan_tale_ruins.png" trans="8a5a9d" width="682" height="910"/>
 </tileset>
 <tileset firstgid="1377" source="vending_machine.tsx"/>
 <tileset firstgid="1383" source="cheese.tsx"/>
 <layer id="1" name="Ground" width="60" height="32">
  <data encoding="csv">
0,0,0,0,0,0,0,0,0,0,0,0,0,0,0,0,0,0,0,0,0,0,0,0,0,0,0,0,0,0,0,0,0,0,0,0,0,0,0,0,0,0,0,0,0,0,0,0,0,0,0,0,0,0,0,0,0,0,0,0,
0,0,0,0,0,0,0,0,0,0,0,0,0,0,0,0,40,41,42,43,44,45,46,0,0,0,0,0,0,0,0,0,0,0,0,0,0,0,0,0,0,0,0,0,0,0,0,0,0,0,0,0,0,0,0,0,0,0,0,0,
0,0,0,0,0,0,0,0,0,0,0,0,0,0,0,0,40,41,42,43,44,45,46,0,0,0,0,0,0,0,0,0,0,0,0,0,0,0,0,0,0,0,0,0,0,0,0,0,0,0,0,0,0,0,0,0,0,0,0,0,
0,0,0,0,0,0,0,0,0,0,0,0,0,0,0,0,72,73,74,75,76,77,78,0,0,0,0,0,137,137,137,137,137,137,137,137,137,137,137,137,137,137,137,137,137,137,0,0,0,0,0,0,0,0,0,0,0,0,137,0,
0,0,0,0,0,0,0,0,0,0,0,0,0,0,0,0,0,0,0,0,0,0,0,0,0,0,0,0,137,137,78,136,136,136,136,136,136,136,136,136,136,136,136,79,137,137,0,33,34,0,0,0,0,0,0,0,0,0,137,137,
0,0,0,0,0,0,0,0,0,0,0,0,0,0,0,0,0,0,0,0,0,0,0,0,0,0,0,0,137,137,136,136,136,136,136,136,136,136,136,136,136,136,136,136,137,137,0,0,0,0,0,0,0,0,0,0,0,0,0,137,
0,0,0,0,0,0,0,0,0,0,0,0,0,0,0,0,0,0,0,0,0,0,0,0,0,0,0,0,137,137,110,136,136,136,136,136,136,136,136,136,136,136,136,111,137,137,0,0,0,0,0,0,0,0,0,0,0,0,0,137,
0,0,0,0,0,0,0,0,0,0,0,0,0,0,0,0,0,0,0,0,0,0,0,0,0,0,0,0,137,137,137,137,137,137,137,137,137,137,137,136,136,137,137,137,137,137,137,137,137,137,137,137,78,79,137,137,137,137,137,66,
0,0,0,137,137,137,137,137,137,137,137,137,137,137,137,137,78,79,137,137,137,137,137,137,137,137,137,137,137,137,137,137,137,137,137,137,137,137,78,136,136,79,137,137,137,137,137,137,137,137,137,78,136,136,79,137,137,137,137,97,
0,0,0,78,136,136,136,136,136,136,136,136,136,136,136,136,136,136,136,136,136,136,136,136,136,136,136,136,136,136,136,136,136,136,136,136,136,136,136,136,136,136,136,136,136,136,136,136,136,136,136,136,136,136,136,137,137,137,137,137,
0,0,0,110,136,136,136,136,136,136,136,136,136,136,136,136,136,136,136,136,136,136,136,136,136,136,136,136,136,136,136,136,136,136,136,136,136,136,136,136,136,136,136,136,136,136,136,136,136,136,136,136,136,136,136,137,137,137,137,137,
0,0,0,137,137,137,137,137,137,137,136,136,136,136,137,0,0,110,136,136,111,137,137,137,137,137,137,137,137,137,137,137,137,137,137,137,137,137,110,136,136,111,137,137,137,137,137,137,137,137,137,136,136,136,136,137,137,137,137,137,
0,0,0,137,137,137,137,137,137,137,136,136,136,136,137,137,0,122,122,122,122,0,0,0,0,0,0,137,137,137,137,137,137,137,137,137,122,122,122,122,122,122,122,122,137,136,136,136,136,137,137,136,136,136,136,137,137,137,137,137,
0,0,0,137,137,137,137,137,137,137,136,136,136,136,137,137,0,122,122,122,122,0,0,0,0,0,137,137,137,137,137,137,137,137,137,137,122,122,122,122,122,122,122,122,137,137,137,137,137,137,137,136,136,136,136,137,137,137,137,137,
0,0,0,137,137,137,137,137,137,137,136,136,136,136,137,137,0,122,122,122,122,0,0,0,0,0,137,137,137,137,137,137,137,137,137,137,137,137,78,136,136,79,137,137,137,137,137,137,137,137,137,136,136,136,136,137,137,137,137,137,
0,0,0,0,0,0,0,0,137,137,136,136,136,136,137,137,0,122,122,122,122,0,0,0,0,0,0,0,137,136,136,136,136,136,136,136,137,137,136,136,136,136,137,137,0,0,0,0,137,137,137,136,136,136,136,137,137,137,137,137,
0,0,0,0,0,0,0,0,137,137,136,136,136,136,137,137,0,122,122,122,122,0,0,0,0,0,0,0,137,136,136,136,136,136,136,136,137,137,136,136,136,136,137,137,0,0,0,0,137,137,137,136,136,136,136,137,137,137,137,137,
0,0,0,0,0,0,0,0,137,137,136,136,136,136,137,137,0,122,122,122,122,0,0,137,137,137,137,0,137,136,137,137,137,137,137,137,137,137,136,136,136,136,137,137,0,0,0,0,137,137,137,136,136,136,136,137,137,137,137,136,
0,0,0,0,0,0,0,0,137,137,136,136,136,136,137,137,0,122,122,122,122,0,137,137,137,137,137,0,137,136,137,78,136,136,136,136,136,136,136,136,136,136,79,137,0,0,0,0,137,137,137,136,136,136,136,137,137,137,137,136,
0,0,0,0,0,0,0,0,137,137,136,136,136,136,137,137,0,122,122,122,122,0,137,137,137,137,137,0,137,136,137,136,136,136,136,136,136,136,136,136,136,136,136,137,0,0,0,0,137,137,137,136,136,136,136,137,137,137,137,136,
0,0,0,0,0,0,0,0,137,137,136,136,136,136,137,137,0,122,122,122,122,0,137,137,137,137,137,0,137,136,137,136,136,136,136,136,136,136,136,136,136,136,136,137,0,0,0,0,137,137,137,136,136,136,136,137,137,137,137,136,
0,0,0,0,0,0,0,0,137,137,136,136,136,136,137,137,0,122,122,122,122,0,137,137,137,137,137,0,137,136,137,136,136,136,136,136,136,136,136,136,136,136,136,137,137,137,137,137,137,137,137,136,136,136,136,137,137,137,137,137,
0,0,0,0,0,0,0,0,137,137,136,136,136,136,137,137,0,122,122,122,122,0,0,137,137,137,137,0,137,136,137,136,136,136,136,136,136,136,136,136,136,136,136,136,136,136,136,136,136,136,136,136,136,136,136,137,137,137,137,0,
0,0,0,0,0,0,0,0,137,137,136,136,136,136,137,137,0,0,0,0,0,0,0,137,137,137,137,0,137,136,137,110,136,136,136,136,136,136,136,136,136,136,136,136,136,136,136,136,136,136,136,136,136,136,136,137,137,137,137,0,
0,0,0,0,0,0,0,0,137,137,136,136,136,136,137,137,137,137,137,137,137,137,137,137,137,137,137,0,0,136,137,137,136,136,136,136,137,137,137,137,137,137,137,137,137,137,137,137,137,137,137,136,136,136,136,137,137,137,137,0,
0,0,0,0,0,0,0,0,137,137,136,136,136,136,137,137,137,137,137,137,137,137,137,137,137,137,137,137,137,137,137,137,136,136,136,136,137,0,0,0,0,0,0,0,0,0,0,0,0,137,137,136,136,136,136,137,137,137,137,0,
0,0,0,0,0,0,0,0,137,137,136,136,136,136,136,136,136,136,136,136,136,136,136,136,136,136,136,136,136,136,136,136,136,136,136,136,137,0,0,0,0,0,0,0,0,0,0,0,0,137,78,136,136,136,136,137,137,137,137,0,
0,0,0,0,0,0,0,0,137,137,136,136,136,136,136,136,136,136,136,136,136,136,136,136,136,136,136,136,136,136,136,136,136,136,136,136,137,0,0,0,0,0,0,0,0,0,0,0,0,78,136,136,136,136,136,137,137,137,137,0,
0,0,0,0,0,0,0,0,137,137,136,136,136,136,136,136,136,136,136,136,136,136,136,136,136,136,136,136,136,136,136,136,136,136,136,111,137,0,0,0,0,0,0,0,0,0,0,0,0,110,136,136,136,136,136,137,137,137,137,0,
0,0,0,0,0,0,0,0,137,137,110,136,136,111,137,137,137,137,137,137,137,137,137,137,137,137,137,137,137,137,137,137,137,137,137,137,137,0,0,0,0,0,0,0,0,0,0,0,0,137,110,136,136,136,111,137,137,137,137,0,
0,0,0,0,0,0,0,0,137,137,137,110,111,137,137,137,137,137,137,137,137,137,137,137,137,137,137,137,137,137,137,137,137,137,137,137,137,0,0,0,0,0,0,0,0,0,0,0,0,137,137,137,137,137,137,137,137,137,137,0,
0,0,0,0,0,0,0,0,0,0,0,0,0,0,0,0,0,0,0,0,0,0,0,0,0,0,0,0,0,0,0,0,0,0,0,0,0,0,0,0,0,0,0,0,0,0,0,0,0,0,0,0,0,0,0,0,0,0,0,0
</data>
 </layer>
 <layer id="4" name="Objects" width="60" height="32">
  <data encoding="csv">
770,771,771,771,771,771,771,771,771,771,771,771,771,771,771,771,771,771,771,771,771,771,771,771,771,771,771,17,10,10,10,10,10,10,10,10,10,10,10,10,10,10,10,10,10,10,18,771,771,771,771,771,771,771,771,771,771,771,771,771,
771,771,771,771,771,771,771,771,771,771,771,771,771,771,771,771,771,771,771,771,771,771,771,771,771,771,771,12,66,66,66,66,66,66,66,66,66,66,66,66,66,66,66,66,1377,1378,11,771,771,771,771,771,771,771,771,771,771,771,771,771,
771,771,771,771,771,771,771,771,771,771,771,771,771,771,771,771,771,771,771,771,771,771,771,771,771,771,771,12,98,98,98,98,98,98,98,98,98,98,98,98,98,98,98,98,1379,1380,43,10,10,10,10,10,10,10,10,10,18,770,771,771,
771,771,17,10,10,10,10,10,10,10,10,10,10,10,10,10,10,10,10,10,10,10,10,10,10,10,10,44,0,0,0,0,0,0,0,0,0,0,0,0,0,0,0,0,1381,1382,65,66,66,66,66,66,66,66,66,66,43,10,18,770,
771,771,12,66,66,66,66,66,66,66,66,66,66,66,66,66,66,66,66,66,66,66,66,66,66,66,66,67,0,0,0,0,0,0,0,0,0,0,0,0,0,0,0,0,0,0,65,33,34,66,66,66,129,130,66,66,65,66,11,770,
771,771,12,66,66,66,66,66,66,66,66,66,66,66,66,66,129,130,66,66,66,66,66,66,66,66,66,67,0,1383,1384,0,0,0,0,0,0,0,0,0,0,0,0,0,0,0,65,66,66,66,66,66,161,162,66,66,65,66,11,770,
771,771,12,66,36,37,66,66,66,66,66,66,66,66,66,66,161,162,66,35,66,66,66,66,66,66,66,67,0,0,0,0,0,0,0,0,0,0,0,0,0,0,0,0,0,0,97,98,98,98,98,98,193,194,98,98,65,66,11,770,
771,771,12,98,98,98,98,98,98,98,98,98,98,98,98,98,193,194,98,98,98,98,98,98,98,98,98,99,0,0,0,0,0,0,0,0,0,0,0,0,0,0,0,0,0,0,0,0,0,0,0,0,0,0,0,0,97,98,11,770,
771,17,46,0,0,0,0,0,0,0,0,0,0,0,0,0,0,0,0,0,0,0,0,0,0,0,0,0,0,0,0,0,0,0,0,0,0,0,0,0,0,0,0,0,0,0,0,0,0,0,0,0,0,0,0,0,0,0,11,770,
771,12,60,0,0,0,0,0,0,0,0,0,0,0,0,0,0,0,0,0,0,0,0,0,0,0,0,0,0,0,0,0,0,0,0,0,0,0,0,0,0,0,0,0,0,0,0,0,0,0,0,0,0,0,0,0,0,0,11,770,
771,12,60,0,0,0,0,0,0,0,0,0,0,0,0,0,0,0,0,0,0,0,0,0,0,0,0,0,0,0,0,0,0,0,0,0,0,0,0,0,0,0,0,0,0,0,0,0,0,0,0,0,0,0,0,0,0,0,11,770,
771,49,14,0,0,0,0,0,0,0,0,0,0,0,0,13,14,0,0,0,0,13,9,9,9,9,9,9,9,9,9,9,9,9,9,14,0,0,0,0,0,0,0,0,0,0,0,0,0,0,0,0,0,0,0,0,0,0,11,770,
771,771,12,0,0,0,0,0,0,0,0,0,0,0,0,11,12,0,0,0,0,11,778,778,778,778,778,778,778,778,778,778,778,778,778,12,0,0,0,0,0,0,0,0,13,9,9,9,14,0,0,0,0,0,0,0,0,0,11,770,
770,770,12,134,135,135,13,14,0,0,0,0,0,0,0,11,12,0,0,0,0,11,17,10,10,10,10,18,778,17,10,10,10,10,10,44,0,0,0,0,0,0,0,0,11,770,771,778,12,0,0,0,0,0,0,0,0,0,11,770,
770,770,12,0,0,0,11,12,0,0,0,0,0,0,0,11,12,0,0,0,0,11,12,66,66,66,66,11,778,12,66,66,66,66,66,67,0,0,0,0,0,0,0,0,11,770,771,778,12,0,0,0,0,0,0,0,0,0,11,770,
770,770,49,9,9,9,50,12,0,0,0,0,0,0,0,11,12,0,0,0,0,11,12,66,66,66,66,11,778,12,66,66,66,66,66,67,0,0,0,0,0,0,0,0,43,10,10,10,44,0,0,0,0,0,0,0,0,0,11,770,
770,770,771,770,770,770,771,12,0,0,0,0,0,0,0,11,12,0,0,0,0,11,12,98,98,98,98,11,778,12,98,98,98,98,98,99,0,0,0,0,0,0,0,0,65,66,66,66,67,0,0,0,0,0,0,0,0,0,11,770,
770,770,771,770,770,771,771,12,0,0,0,0,0,0,0,11,12,0,0,0,0,11,12,0,0,1383,1384,11,778,12,0,0,0,0,0,0,0,0,0,0,0,0,0,0,65,66,66,66,67,0,0,0,0,0,0,0,0,0,11,770,
770,770,771,770,770,771,771,12,0,0,0,0,0,0,0,11,12,0,0,0,0,11,12,0,0,0,0,11,778,12,0,0,1383,1384,0,0,0,0,0,0,0,0,0,0,65,66,66,66,67,0,0,0,0,0,0,0,0,0,11,770,
770,770,771,771,771,771,770,12,0,0,0,0,0,0,0,11,12,0,0,0,0,11,12,0,0,0,0,11,778,12,0,0,0,0,0,0,0,0,0,0,0,0,0,0,65,66,66,66,67,0,0,0,0,0,0,0,0,0,11,770,
770,770,771,771,771,771,770,12,0,0,0,0,0,0,0,11,12,0,0,0,0,11,12,0,0,0,0,11,778,12,0,0,0,0,0,0,0,0,0,0,1383,1384,0,0,97,98,98,98,99,0,0,0,0,0,0,0,0,0,11,770,
770,770,771,771,771,771,770,12,0,0,0,0,0,0,0,11,12,0,0,0,0,11,12,0,0,0,0,43,10,44,0,0,0,0,0,0,0,0,0,0,0,0,0,0,0,0,0,0,0,0,0,0,0,0,0,0,0,0,11,770,
770,770,771,771,771,771,770,12,0,0,0,0,0,0,0,11,49,9,9,9,9,50,12,0,0,0,0,65,66,67,0,0,0,1383,1384,0,0,0,0,0,0,0,0,0,0,0,0,0,0,0,0,0,0,0,0,0,0,0,11,770,
770,770,771,771,771,771,770,12,0,0,0,0,0,0,0,43,10,10,10,10,10,10,46,0,0,0,0,65,66,67,0,0,0,0,0,0,0,0,0,0,0,0,0,0,0,0,0,0,0,0,0,0,0,0,0,0,0,0,11,770,
770,770,771,771,771,771,771,12,0,0,0,0,0,0,0,0,0,0,0,1383,1384,0,0,0,0,0,0,97,98,99,0,0,0,0,0,0,0,0,0,0,0,0,0,0,0,0,0,0,0,0,0,0,0,0,0,0,0,0,11,770,
770,770,771,771,771,771,771,12,0,0,0,0,0,0,0,0,0,0,0,0,0,0,0,0,0,0,0,0,0,0,0,0,0,0,0,0,0,13,9,9,9,9,9,9,9,9,9,9,14,0,0,0,0,0,0,0,0,0,11,770,
770,770,771,771,771,771,771,12,0,0,0,0,0,0,0,0,0,0,0,0,0,0,0,0,0,0,0,0,0,0,0,0,0,0,0,0,0,11,771,771,770,770,771,771,770,771,771,17,46,0,0,0,0,0,0,0,0,0,11,770,
770,770,771,771,771,771,770,12,0,0,0,0,0,0,0,0,0,0,0,0,0,0,0,0,0,0,0,0,0,0,0,0,0,0,0,0,0,11,771,771,771,770,770,771,770,771,771,12,180,0,0,0,0,0,0,0,0,0,11,770,
771,771,771,771,771,771,770,12,0,0,0,0,0,0,0,0,0,0,0,0,0,0,0,0,0,0,0,0,0,0,0,0,0,0,0,0,0,11,771,770,771,771,771,770,770,771,771,12,180,0,0,0,0,0,0,0,0,0,11,770,
771,771,771,771,771,771,771,12,0,0,0,0,0,0,0,0,0,0,0,0,0,0,0,0,0,0,0,0,0,0,0,0,0,0,0,0,0,11,771,770,771,771,771,770,770,770,771,49,14,0,0,0,0,0,0,0,0,0,11,770,
771,771,771,771,771,771,771,12,0,0,0,0,0,0,0,0,0,0,0,0,0,0,0,0,0,0,0,0,0,0,0,0,0,0,0,0,0,11,771,770,771,771,771,770,771,770,771,771,12,0,0,0,0,0,0,0,0,0,11,770,
771,771,771,771,771,771,771,49,9,9,14,547,548,13,9,9,9,9,9,9,9,9,9,9,9,9,9,9,9,9,9,9,9,9,9,9,9,50,771,770,770,770,770,771,771,771,771,771,49,9,9,9,9,9,9,9,9,9,50,770
</data>
 </layer>
 <objectgroup id="6" name="Interactables"/>
</map>
